packages/components/svg/outline/chevron-double-up.svg

<svg xmlns="http://www.w3.org/2000/svg" width="24" height="24" fill="currentColor" viewBox="0 0 24 24">
<path d="M8.73388 11.2665C8.34654 11.6538 7.71868 11.6538 7.33134 11.2665C6.944 10.8792 6.944 10.2513 7.33134 9.86397L10.7728 6.42251C11.4506 5.74474 12.5494 5.74474 13.2272 6.42252L16.6687 9.86397C17.056 10.2513 17.056 10.8792 16.6687 11.2665C16.2813 11.6538 15.6535 11.6538 15.2661 11.2665L12 8.00037L8.73388 11.2665ZM8.73388 18.2095C8.34654 18.5968 7.71868 18.5968 7.33134 18.2095C6.944 17.8221 6.944 17.1943 7.33134 16.8069L10.7728 13.3655C11.4506 12.6877 12.5494 12.6877 13.2272 13.3655L16.6687 16.8069C17.056 17.1943 17.056 17.8221 16.6687 18.2095C16.2813 18.5968 15.6535 18.5968 15.2661 18.2095L12 14.9433L8.73388 18.2095Z" />
</svg>

<svg xmlns="http://www.w3.org/2000/svg" width="24" height="24" fill="currentColor" viewBox="0 0 24 24">
  <path  d="M8.734 11.267A.992.992 0 0 1 7.33 9.864l3.442-3.441a1.736 1.736 0 0 1 2.454 0l3.442 3.441a.992.992 0 1 1-1.403 1.402L12 8l-3.266 3.267Zm0 6.942a.992.992 0 1 1-1.403-1.402l3.442-3.441a1.735 1.735 0 0 1 2.454 0l3.442 3.44a.992.992 0 0 1-1.403 1.403L12 14.943 8.734 18.21Z"/>
</svg>
